X: 10
M: C
L: 1/16
K: D
|:\
d4 A4 (Bcd2) A4 | (GAB2) A2G2 (F2GA) D4 |\
d4 A4 (Bcd2) A2G2 | (FED2) TE4 D8 :|
|:\
d4 A4 (Bcd2) A2G2 | (FED2) TE4 D8 :|

